assets/icons/chevron-right.svg

<svg width="24" height="25" viewBox="0 0 24 25" fill="none" xmlns="http://www.w3.org/2000/svg">
<path d="M7.28332 4.39554C7.0351 4.01609 7.07834 3.50091 7.41282 3.16914C7.7473 2.83742 8.26182 2.79979 8.63922 3.05107L8.79347 3.17485L15.9576 10.4C17.1045 11.5562 17.1763 13.3938 16.1728 14.6352L15.9576 14.8752L8.79348 22.1003L8.63922 22.2241C8.26182 22.4754 7.7473 22.4377 7.41282 22.106C7.07834 21.7742 7.0351 21.2591 7.28332 20.8796L7.40711 20.7254L14.5732 13.5022L14.7274 13.3117C15.0355 12.8385 14.9838 12.187 14.5732 11.773L7.40711 4.5498L7.28332 4.39554Z" fill="#111111"/>
</svg>

<svg xmlns="http://www.w3.org/2000/svg" width="24" height="25" fill="none" viewBox="0 0 24 25"><path fill="#111" d="M7.283 4.396A.975.975 0 0 1 8.64 3.052l.154.123 7.165 7.225a3.19 3.19 0 0 1 .215 4.235l-.215.24L8.793 22.1l-.154.124a.975.975 0 0 1-1.356-1.344l.124-.155 7.166-7.223.154-.19a1.24 1.24 0 0 0-.154-1.539L7.407 4.55z"/></svg>
